src/assets/icons/home.svg

<svg   viewBox="0 0 24 24" fill="none" xmlns="http://www.w3.org/2000/svg">
<path d="M9 9H15M21 8.29975V19C21 20.1046 20.1046 21 19 21H5C3.89543 21 3 20.1046 3 19V8.29975C3 7.50937 3.46547 6.79313 4.18772 6.47212L12 3L19.8123 6.47212C20.5345 6.79313 21 7.50937 21 8.29975ZM10 14H14C14.5523 14 15 14.4477 15 15V21H9V15C9 14.4477 9.44772 14 10 14Z"  stroke="currentColor"  stroke-linecap="round" stroke-linejoin="round"/>
</svg>

<svg  viewBox="0 0 24 24" fill="none" xmlns="http://www.w3.org/2000/svg">
    <path stroke="currentColor" stroke-linecap="round" stroke-linejoin="round"   d="M9 9h6m6-.7V19a2 2 0 0 1-2 2H5a2 2 0 0 1-2-2V8.3a2 2 0 0 1 1.188-1.828L12 3l7.812 3.472A2 2 0 0 1 21 8.3ZM10 14h4a1 1 0 0 1 1 1v6H9v-6a1 1 0 0 1 1-1Z"/>
</svg>
